X: 1478
T: George Large's Polka
B: australian traditional tunes wiki
M:2/4
L:1/16
R: Polka
Q: 1/4=100
K:Dmaj
V:1 
|"D"F2AF "G"G2B2|"D"A2f2- fefA|"Em"B2e2- efeB|1"D"A2d2 dAd2:|2"D"A2d2 d2Bc||
|:"G"d2B2- BdcB|"D"A2F2 F2A2|1"G"G2E2- EDEG|"D"F2D2 D2(3ABc:|2"G"G2E2- EABc|"D"d2f2 d4||
% abcbook-tune_id 6342d53ad30a062f6244d106


% abcbook-boost 0
% abcbook-tablature 
% abcbook-transpose 
% abcbook-lastupdated 1665324367069
% abcbook-soundfonts 
% abcbook-repeats 1
% NFF Book 2015

